packages/gestalt-icons-android/vr-theme/ic_vr_globe_gestalt.svg

<svg width="24" height="24" viewBox="0 0 24 24" fill="none" xmlns="http://www.w3.org/2000/svg">
<path fill-rule="evenodd" clip-rule="evenodd" d="M24 12C24 5.37258 18.6274 0 12 0C5.37258 0 0 5.37258 0 12C0 18.6274 5.37258 24 12 24C18.6274 24 24 18.6274 24 12ZM14.4538 19.5909C13.4743 21.5498 12.4912 22 12 22C11.5088 22 10.5257 21.5498 9.54621 19.5909C8.72786 17.9541 8.1416 15.651 8.02237 13H15.9776C15.8584 15.651 15.2721 17.9541 14.4538 19.5909ZM15.9776 11H8.02237C8.1416 8.34898 8.72786 6.04585 9.54621 4.40915C10.5257 2.45018 11.5088 2 12 2C12.4912 2 13.4743 2.45018 14.4538 4.40915C15.2721 6.04585 15.8584 8.34898 15.9776 11ZM17.9795 13C17.8429 16.3102 17.0346 19.2395 15.8278 21.2412C19.1578 19.8604 21.5801 16.732 21.9506 13H17.9795ZM21.9506 11H17.9795C17.8429 7.68976 17.0346 4.76048 15.8278 2.75876C19.1578 4.13963 21.5801 7.26803 21.9506 11ZM6.02054 11C6.15708 7.68976 6.96541 4.76048 8.17224 2.75876C4.84218 4.13963 2.41991 7.26803 2.04938 11H6.02054ZM2.04938 13C2.41991 16.732 4.84218 19.8604 8.17224 21.2412C6.96542 19.2395 6.15708 16.3102 6.02054 13H2.04938Z" fill="black"/>
</svg>

<svg xmlns="http://www.w3.org/2000/svg" width="24" height="24"><path d="M24 12a12 12 0 1 0-24 0 12 12 0 0 0 24 0m-9.55 7.6C13.47 21.54 12.5 22 12 22s-1.47-.45-2.45-2.4A17 17 0 0 1 8.02 13h7.96a17 17 0 0 1-1.53 6.6m1.53-8.6H8.02c.12-2.65.7-4.95 1.53-6.6C10.53 2.46 11.5 2 12 2s1.47.45 2.45 2.4a17 17 0 0 1 1.53 6.6m5.97 2a10 10 0 0 1-6.12 8.24c1.2-2 2.01-4.93 2.15-8.24zm0-2h-3.97c-.14-3.31-.95-6.24-2.15-8.24A10 10 0 0 1 21.95 11m-19.9 0a10 10 0 0 1 6.12-8.24c-1.2 2-2.01 4.93-2.15 8.24zm3.97 2c.14 3.31.95 6.24 2.15 8.24A10 10 0 0 1 2.05 13z"/></svg>
